gtk-icons/Papirus-GTK/48x48/apps/filezilla.svg

<?xml version="1.0" encoding="UTF-8" standalone="no"?>
<!-- Created with Inkscape (http://www.inkscape.org/) -->
<svg id="svg2817" xmlns:rdf="http://www.w3.org/1999/02/22-rdf-syntax-ns#" xmlns="http://www.w3.org/2000/svg" height="48" width="48" version="1.0" xmlns:cc="http://creativecommons.org/ns#" xmlns:dc="http://purl.org/dc/elements/1.1/">
 <metadata id="metadata57">
  <rdf:RDF>
   <cc:Work rdf:about="">
    <dc:format>image/svg+xml</dc:format>
    <dc:type rdf:resource="http://purl.org/dc/dcmitype/StillImage"/>
    <dc:title/>
   </cc:Work>
  </rdf:RDF>
 </metadata>
 <defs id="defs2819">
  <linearGradient id="linearGradient4191" y2="3.9509" gradientUnits="userSpaceOnUse" x2="24.239" gradientTransform="translate(0,1)" y1="22.121" x1="24.292">
   <stop id="stop4187" offset="0"/>
   <stop id="stop4189" stop-opacity="0" offset="1"/>
  </linearGradient>
 </defs>
 <rect id="rect4203-6" transform="matrix(0,-1,-1,0,0,0)" rx="2" ry="2" height="40" width="40" y="-44" x="-44" fill="#d95951"/>
 <path id="rect4592" opacity=".2" d="m6 4c-1.108 0-2 0.892-2 2v1c0-1.108 0.892-2 2-2h36c1.108 0 2 0.892 2 2v-1c0-1.108-0.892-2-2-2h-36z" fill="#fff"/>
 <path id="path4597" opacity=".3" d="m6 44c-1.108 0-2-0.892-2-2v-1c0 1.108 0.892 2 2 2h36c1.108 0 2-0.892 2-2v1c0 1.108-0.892 2-2 2h-36z"/>
 <path id="path4112" style="enable-background:new" fill="#f2f2f2" d="m16.27 11-5.27 23.377h4.2819l2.4873-10.462h11.688l-10.946 9.799 2.854 3.286 1.4616-0.75312c2.764-1.4211 3.9232-0.59017 6.0202-0.0083 2.0401 0.56616 3.958 1.1721 7.937-1.1215l-0.7902-4.0482c-4.3425 3.0876-5.7163 0.33286-8.8092 0.2235l8.854-7.492 0.961-4h-18.548l1.194-4.8004h12.157l0.83372-3.9997h-16.367z"/>
 <path id="path4026" opacity=".1" d="m6 5c-1.108 0-2 0.892-2 2v17h40v-17c0-1.108-0.892-2-2-2h-36z" fill="url(#linearGradient4191)"/>
</svg>

<?xml version="1.0" encoding="UTF-8" standalone="no"?>
<!-- Created with Inkscape (http://www.inkscape.org/) -->

<svg
   xmlns:dc="http://purl.org/dc/elements/1.1/"
   xmlns:cc="http://creativecommons.org/ns#"
   xmlns:rdf="http://www.w3.org/1999/02/22-rdf-syntax-ns#"
   xmlns:svg="http://www.w3.org/2000/svg"
   xmlns="http://www.w3.org/2000/svg"
   xmlns:sodipodi="http://sodipodi.sourceforge.net/DTD/sodipodi-0.dtd"
   xmlns:inkscape="http://www.inkscape.org/namespaces/inkscape"
   id="svg2817"
   height="48"
   width="48"
   version="1.0"
   inkscape:version="0.91 r"
   sodipodi:docname="filezilla.svg">
  <sodipodi:namedview
     pagecolor="#ffffff"
     bordercolor="#666666"
     borderopacity="1"
     objecttolerance="10"
     gridtolerance="10"
     guidetolerance="10"
     inkscape:pageopacity="0"
     inkscape:pageshadow="2"
     inkscape:window-width="1600"
     inkscape:window-height="846"
     id="namedview15"
     showgrid="false"
     inkscape:zoom="9.2"
     inkscape:cx="17.79098"
     inkscape:cy="24"
     inkscape:window-x="0"
     inkscape:window-y="26"
     inkscape:window-maximized="1"
     inkscape:current-layer="svg2817" />
  <metadata
     id="metadata57">
    <rdf:RDF>
      <cc:Work
         rdf:about="">
        <dc:format>image/svg+xml</dc:format>
        <dc:type
           rdf:resource="http://purl.org/dc/dcmitype/StillImage" />
        <dc:title />
      </cc:Work>
    </rdf:RDF>
  </metadata>
  <defs
     id="defs2819">
    <linearGradient
       id="linearGradient4191"
       y2="3.9509"
       gradientUnits="userSpaceOnUse"
       y1="22.121"
       x2="24.239"
       x1="24.292"
       gradientTransform="translate(0,1)">
      <stop
         id="stop4187"
         offset="0" />
      <stop
         id="stop4189"
         stop-opacity="0"
         offset="1" />
    </linearGradient>
  </defs>
  <rect
     style="fill:#d95951"
     x="-44"
     y="-44"
     width="40"
     height="40"
     ry="2"
     rx="2"
     transform="matrix(0,-1,-1,0,0,0)"
     id="rect4203-6" />
  <path
     style="opacity:0.2;fill:#ffffff"
     inkscape:connector-curvature="0"
     d="M 6,4 C 4.892,4 4,4.892 4,6 L 4,7 C 4,5.892 4.892,5 6,5 l 36,0 c 1.108,0 2,0.892 2,2 L 44,6 C 44,4.892 43.108,4 42,4 L 6,4 Z"
     id="rect4592" />
  <path
     style="opacity:0.3"
     inkscape:connector-curvature="0"
     d="M 6,44 C 4.892,44 4,43.108 4,42 l 0,-1 c 0,1.108 0.892,2 2,2 l 36,0 c 1.108,0 2,-0.892 2,-2 l 0,1 c 0,1.108 -0.892,2 -2,2 L 6,44 Z"
     id="path4597" />
  <path
     inkscape:connector-curvature="0"
     d="M 16.27,11 11,34.377 l 4.2819,0 2.4873,-10.462 11.688,0 -10.946,9.799 2.854,3.286 1.4616,-0.75312 c 2.764,-1.4211 3.9232,-0.59017 6.0202,-0.0083 2.0401,0.56616 3.958,1.1721 7.937,-1.1215 l -0.7902,-4.0482 c -4.3425,3.0876 -5.7163,0.33286 -8.8092,0.2235 l 8.854,-7.492 0.961,-4 -18.548,0 1.194,-4.8004 12.157,0 0.83372,-3.9997 -16.367,0 z"
     style="fill:#f2f2f2;enable-background:new"
     id="path4112" />
  <path
     inkscape:connector-curvature="0"
     style="opacity:0.1;fill:url(#linearGradient4191)"
     d="M 6,5 C 4.892,5 4,5.892 4,7 L 4,24 44,24 44,7 C 44,5.892 43.108,5 42,5 L 6,5 Z"
     id="path4026" />
</svg>
